X:1
T:June Apple
L:1/8
M:4/4
I:linebreak $
K:D
V:1 treble
V:1
 eg |: "A" ageg ageg | aged cdef |"G" gfef gfef |gfga g2 eg |$
"A" ageg ageg | aged cBAF |"G" GFGA BAGF |1"A"  E A2 B A2 eg :|2"A" E A2 B A2 ed | $
|: "A"c2 cB A2 AB | cBcd e2 EF |"G" GFGA BABc |"D" dcde f2 ed |"A"  c2 cB A2 AB | $
cBcd e2 EF | "G"GFGA BAGF |1"A" E A2 B A2 ed :|2"A" E A2 B A4 |]
